!!!SOCIAL_FUNCTION:	war songs
!!!PDT:	1909
!!!OTL: No_125.krn
!!!REG: Great_Lakes
!!!LANG: Non-Tone
!!!LING_GROUP: Algonquin
**kern	**kern
*staff2	*staff1
=1-	=1-
*clefF4	*clefF4
*k[b-e-a-d-g-]	*k[b-e-a-d-g-]
*M3/4	*M3/4
8GG-/L	4.f\
8GG-/J	.
8GG-/L	.
8GG-/J	16g-\LL
.	16f\JJ
8GG-/L	8d-\L
8GG-/J	8B-\J
=2	=2
2.r	4.f\
.	16g-\LL
.	16f\JJ
.	8d-\L
.	8B-\J
=3||	=3||
*M2/4	*M2/4
2r	4.d-\
.	16f\LL
.	16e-\JJ
=4	=4
2r	8d-\L
.	8B-\J
.	8d-\L
.	8B-\J
=5	=5
2r	8.A-\L
.	16A-\Jk
.	[4A-\
=6	=6
2r	2A-\]
=7	=7
2r	4F\
.	4A-\
=8	=8
2r	4B-\
.	4A-\
=9	=9
2r	16A-\LK
.	8.F\J
.	8.F\L
.	16F\Jk
=10	=10
2r	[2F\
=11	=11
2r	2F\]
=12	=12
2r	4B-\
.	[4d-\
=13	=13
2r	4d-\]
.	8f\L
.	8d-\J
=14	=14
2r	4B-\
.	12d-^\L
.	[12B-\
.	12B-\J]
=15	=15
2r	8.A-\L
.	16A-\Jk
.	[4A-\
=16	=16
2r	2A-\]
=17	=17
2r	4F\
.	4A-\
=18	=18
2r	4B-\
.	4A-\
=19	=19
2r	(16A-^\LK
.	8.F\J)
.	8.F\L
.	16F\Jk
=20	=20
2r	[2F\
=21	=21
2r	2F\]
==	==
*-	*-
